X:1
T:James Gibb editions
T:Alla riva del Tebro - Palestrina
T:#
%%score [ 1 2 3 4 ]
L:1/8
Q:1/4=108
M:4/4
K:Eb
V:1 treble nm="Soprano" snm="S"
V:2 treble nm="Alto" snm="A"
V:3 treble-8 nm="Tenor" snm="T"
V:4 bass nm="Bass" snm="B"
V:1
"^Alla riva del Tebro""^Giovanni Pierluigi da Palestrina\n(1525-94)" z8 | z8 | z8 | B6 B2 | %4
w: |||Al- la|
 A4 G2 E2 | G4 F4- |[M:4/4] F4 z2 B2- | B2 =A2 B4- | B2 G2 c4 | B6 e2 | (edcB c2) B2 | %11
w: ri- va del|Te- bro|* gio\-|* va- net\-|* to vid'|io, va-|go * * * * pa-|
 (AGFE F2) F2 | G2 A2 F4 | E2 e4 d2 | e4 c2 f2 | e2 e2 d2 (c2- | cB B4) =A2 | B8 | z2 B2 d2 d2 | %19
w: stor, * * * * va-|go pa- sto-|re, gio- va-|net- to vid'|io, va- go pa\-|* * * sto-|re;|man- dar tai|
 f4 d2 (fe | dc B4 =A2 | B4) F4 | z4 G4- | G2 F2 E4 | z8 | z8 | z4 B4- | B2 A2 G4 | e4 d4- | %29
w: vo- ci fuo\- *||* re:|Sa\-|* zia- ti,|||sa\-|* zia- ti~~o|cru- da|
 d2 (c3 =B B2) | c2 c2 c2 c2 | _d4 c4- | c2 (B4 AG | A2 G2 F4) | F4 z2 F2 | A2 A2 A4 | E4 (G3 A | %37
w: * De\- * *|a del- la mia~~a-|cer- ba~e|* re\- * *||a, ma|dir non puo-|te: mor\- *|
 B4) B4 | z2 G2 F2 F2 | E8 | C4 z4 | z8 | z4 _d4 | c6 B2 | A2 G2 F4 | E8 | e4 (c4- | c2 B2 A2) G2 | %48
w: * te,|ch'il duol l'an-|ci-|se,||Ahi|mi- se-|ra- bil sor-|te,|ahi mi\-|* * * se-|
 F2 E4 D2 |[Q:1/4=105] E8- |[Q:1/4=99] E8 |[Q:1/4=94] E8 |[Q:1/4=92] E8 |] %53
w: ra- bil sor-|te!||||
V:2
 z8 | z4 B4- | B2 B2 A4 | G2 E2 G4 | F2 (CDEF G2- | GF E3 D D2) |[M:4/4] C4 F4 | z2 E4 D2 | E6 C2 | %9
w: |Al\-|* la ri-|va del Te-|bro, del * * * *||Te- bro|gio- va-|net- to|
 F4 G4- | G2 A2 G2 (F2- | FE E4) D2 | E4 z2 B2- | B2 =A2 B4- | B2 G2 !courtesy!_A4 | G4 A4 | %16
w: vid' io,|* va- go pa\-|* * * sto-|re, gio\-|* va- net\-|* to vid'|io, va-|
 G2 E2 F4 | G8 | z4 z2 B,2 | D2 D2 F2 B,2 | F8 | D8 | z4 E4- | E2 D2 C4 | A6 G2 | F4 G4- | G4 F4 | %27
w: go pa- sto-|re;|man-|dar tai vo- ci|fuo-|re:|Sa\-|* zia- ti,|sa- zia-|ti~~o cru\-|* da|
 (E6 F2 | G8) | G8 | E4 A2 A2 | A4 G4 | (F6 E2 | _D4) C2 C2 | _D2 D2 D4 | A,4 (C4- | %36
w: De\- *||a|del- la mia~~a-|cer- ba~e|re\- *|* a, ma|dir non puo-|te: mor\-|
 C2 !courtesy!=D2 E4- | E4) D4 | z2 E2 C2 _D2 | B,4 C4 | z4 E4 | F4 C4 | B,2 A,2 B,4 | E8 | %44
w: |* te,|ch'il duol l'an-|ci- se,|Ahi|mi- se-|ra- bil sor-|te,|
 z2 E2 C2 _D2 | (C3 B,/A,/ B,4) | (C6 _D2 | E8) | z8 | B4 G4- | G2 F2 E2 D2 | C8 | B,8 |] %53
w: ch'il duol l'an-|ci\- * * *|se, *|||ahi mi\-|* se- ra- bil|sor-|te!|
V:3
 z4 f4- | f2 f2 e4 | d2 B2 (cBcd | e4) E2 E2 | (FGAB c3 d | e4) B4 |[M:4/4][K:treble-8] z2 f4 d2 | %7
w: Al\-|* la ri-|va del Te\- * * *|* bro, del|Te\- * * * * *|* bro|gio- va-|
 e4 f2 f2 | g4 z2 e2- | e2 d2 e4 | c2 f2 e2 d2 | c2 c2 B4 | E2 e4 d2 | e4 f2 f2 | g4 z2 (cd | %15
w: net- to vid'|io, gio\-|* va- net-|to vid' io, va-|go pa- sto-|re, gio- va-|net- to vid'|io, va\- *|
 efge f4) | d2 B2 c4 | e4 z2 B2 | d2 d2 f4 | B2 (f3 edc | d4) c4 | z4 B4- | B2 A2 G4 | e6 d2 | %24
w: |go pa- sto-|re; man-|dar tai vo-|ci fuo\- * * *|* re:|Sa\-|* zia- ti,|sa- zia-|
 c4 f2 e2 | d4 e4- | e4 (d4- | d2 c2 c4- | c2 B2- B4) | e4 d4 | z2 c2 e2 e2 | f4 e4 | %32
w: ti, sa- zia-|ti~~o cru\-|* da|||De- a|del- la mia~~a-|cer- ba~e|
 (_d3 c d2 c2- | c2 B4 =A2) | B4 z4 | F4 A2 A2 | A2 G2 (E3 F | G4) F2 B2 | c2 (B3 A A2- | %39
w: re\- * * *||a,|ma dir non|puo- te: mor\- *|* te, ch'il|duol l'an\- * *|
 A2) G2 A4 | e4 c4- | c2 B2 A2 G2 | (FG A4 G2) | A8 | z2 B2 A2 B2- | B2 (A4 G2) | A4 e4 | c6 B2 | %48
w: * ci- se,|Ahi mi\-|* se- ra- bil|sor\- * * *|te,|ch'il duol l'an\-|* ci\- *|se, ahi|mi- se-|
 A2 G2 F4 | E2 E2 E2 F2 | G4 G4 | A8 | G8 |] %53
w: ra- bil sor-|te, ahi mi- se-|ra- bil|sor-|te!|
V:4
 B,6 B,2 | A,4 G,2 E,2 | G,4 F,4 | z8 | z8 | z4 z2 B,2- |[M:4/4] B,2 =A,2 B,4 | G,2 C2 B,4 | %8
w: Al- la|ri- va del|Te- bro|||gio\-|* va- net-|to vid' io,|
 E,4 A,2 A,2 | B,4 E,4 | z8 | z4 z2 B,2- | B,2 !courtesy!_A,2 B,4 | G,2 C2 B,4 | E,4 (F,G,A,B, | %15
w: va- go pa-|sto- re,||gio\-|* va- net-|to vid' io,|va- go, * * *|
 C2) C2 F,2 F,2 | G,4 F,4 | z2 E,2 G,2 G,2 | B,8- | B,4 B,4 | (B,,C,D,E, F,4) | B,,8 | E,6 D,2 | %23
w: * va- go pa-|sto- re;|man- dar tai|vo\-|* ci|fuo\- * * * *|re:|Sa- zia-|
 C,4 A,4- | A,2 G,2 F,4 | B,8 | B,8 | G,8- | G,8 | G,8 | A,4 A,2 A,2 | F,8 | F,8 | F,8 | %34
w: ti, sa\-|* zia- ti~~o|cru-|da|De\-||a|del- la mia~~a-|cer-|ba~e|re-|
 B,,2 B,,2 _D,2 D,2 | _D,4 A,,4 | C,8 | B,,8 | z2 E,2 F,2 _D,2 | E,4 A,,4- | A,,4 A,4 | F,6 E,2 | %42
w: a, ma dir non|puo- te:|mor-|te,|ch'il duol l'an-|ci- se,|* Ahi|mi- se-|
 _D,2 C,2 B,,4 | A,,8 | z2 E,2 F,2 _D,2 | E,8 | A,,8- | A,,8 | z4 A,4 | (G,6 F,2 | %50
w: ra- bil sor-|te,|ch'il duol l'an-|ci-|se,||ahi|mi\- *|
 E,2) D,2 C,2 B,,2 | A,,8 | E,8 |] %53
w: * se- ra- bil|sor-|te!|

